components/ui-node-icon/src/crossJoin/crossJoin.large.svg

<svg width="32" height="32" viewBox="0 0 32 32" fill="none" xmlns="http://www.w3.org/2000/svg">
  <path fill-rule="evenodd" clip-rule="evenodd" d="M7.5 27C10.543 27 13.0976 23.4613 13.8053 18.683L10.029 20.9488C8.69595 21.7486 7 20.7884 7 19.2338V13.7662C7 12.2116 8.69594 11.2514 10.029 12.0512L13.9311 14.3925C13.4714 9.07933 10.7672 5 7.5 5C3.91015 5 1 9.92487 1 16C1 22.0751 3.91015 27 7.5 27ZM23.5 27C20.457 27 17.9024 23.4613 17.1947 18.683L20.971 20.9488C22.3041 21.7486 24 20.7884 24 19.2338V13.7662C24 12.2116 22.3041 11.2514 20.971 12.0512L17.0689 14.3925C17.5286 9.07933 20.2328 5 23.5 5C27.0899 5 30 9.92487 30 16C30 22.0751 27.0899 27 23.5 27ZM13.5563 16.5L9 13.7662V19.2338L13.5563 16.5ZM17.4437 16.5L22 19.2338V13.7662L17.4437 16.5ZM15.5 17.6474L17 18.4911V14.5089L15.5 15.3527L14 14.5089V18.4911L15.5 17.6474Z" fill="var(--tbl--colors--icons--transformation--primary)"/>
</svg>

<svg xmlns="http://www.w3.org/2000/svg" width="32" height="32" fill="none" viewBox="0 0 32 32">
  <path fill="var(--tbl--colors--icons--transformation--primary)" fill-rule="evenodd" d="M7.5 27c3.043 0 5.598-3.539 6.305-8.317l-3.776 2.266c-1.333.8-3.029-.16-3.029-1.715v-5.468c0-1.554 1.696-2.515 3.029-1.715l3.902 2.341C13.471 9.08 10.767 5 7.5 5 3.91 5 1 9.925 1 16s2.91 11 6.5 11Zm16 0c-3.043 0-5.598-3.539-6.305-8.317l3.776 2.266c1.333.8 3.029-.16 3.029-1.715v-5.468c0-1.554-1.696-2.515-3.029-1.715l-3.902 2.341C17.529 9.08 20.233 5 23.5 5 27.09 5 30 9.925 30 16s-2.91 11-6.5 11Zm-9.944-10.5L9 13.766v5.468l4.556-2.734Zm3.888 0L22 19.234v-5.468L17.444 16.5ZM15.5 17.647l1.5.844V14.51l-1.5.844-1.5-.844v3.982l1.5-.844Z" clip-rule="evenodd"/>
</svg>
